packages/crayons-core/src/components/icon/icon-assets/icons/versions.svg

<?xml version="1.0" encoding="UTF-8"?>
<svg width="16px" height="16px" viewBox="0 0 16 16" version="1.1" xmlns="http://www.w3.org/2000/svg" xmlns:xlink="http://www.w3.org/1999/xlink">
    <!-- Generator: Sketch 52.6 (67491) - http://www.bohemiancoding.com/sketch -->
    <title>icon/versions</title>
    <desc>Created with Sketch.</desc>
    <g id="Icons-✅" stroke="none" stroke-width="1" fill="none" fill-rule="evenodd">
        <g id="Icons" transform="translate(-736.000000, -804.000000)" fill="currentColor">
            <g id="icon/versions" transform="translate(736.000000, 804.000000)">
                <g id="versions">
                    <path d="M13.52,9.14 L15.66,10.4 C15.8706123,10.5265622 15.9994449,10.7542857 15.9994449,11 C15.9994449,11.2457143 15.8706123,11.4734378 15.66,11.6 L8.36,15.9 C8.1383953,16.032889 7.8616047,16.032889 7.64,15.9 L0.34,11.6 C0.129387727,11.4734378 0.000555127546,11.2457143 0.000555127546,11 C0.000555127546,10.7542857 0.129387727,10.5265622 0.34,10.4 L2.44,9.1 C2.60232562,8.99143464 2.80262287,8.95561314 2.99251506,9.00118727 C3.18240724,9.04676139 3.34462907,9.16958747 3.44,9.34 C3.55094034,9.50269523 3.58708079,9.70503968 3.53932067,9.89608017 C3.49156055,10.0871207 3.364451,10.2486526 3.19,10.34 L2.08,11 L8,14.49 L13.88,11.04 L12.77,10.38 C12.595549,10.2886526 12.4684394,10.1271207 12.4206793,9.93608017 C12.3729192,9.74503968 12.4090597,9.54269523 12.52,9.38 C12.6153709,9.20958747 12.7775928,9.08676139 12.9674849,9.04118727 C13.1573771,8.99561314 13.3576744,9.03143464 13.52,9.14 Z M7.64,9.9 L0.34,5.6 C0.129387727,5.47343777 0.000555127546,5.24571432 0.000555127546,5 C0.000555127546,4.75428568 0.129387727,4.52656223 0.34,4.4 L7.64,0.1 C7.86220176,-0.0307145984 8.13779824,-0.0307145984 8.36,0.1 L15.66,4.4 C15.8706123,4.52656223 15.9994449,4.75428568 15.9994449,5 C15.9994449,5.24571432 15.8706123,5.47343777 15.66,5.6 L8.36,9.9 C8.1383953,10.032889 7.8616047,10.032889 7.64,9.9 Z M8,1.51 L2.08,5 L8,8.49 L13.92,5 L8,1.51 Z" id="Combined-Shape"></path>
                </g>
            </g>
        </g>
    </g>
</svg>

<svg viewBox="0 0 16 16"><path d="M13.52 9.14l2.14 1.26a.7.7 0 0 1 0 1.2l-7.3 4.3a.7.7 0 0 1-.72 0l-7.3-4.3a.7.7 0 0 1 0-1.2l2.1-1.3a.7.7 0 0 1 1 .24.69.69 0 0 1-.25 1L2.08 11 8 14.49l5.88-3.45-1.11-.66a.69.69 0 0 1-.25-1 .7.7 0 0 1 1-.24zm-5.88.76L.34 5.6a.7.7 0 0 1 0-1.2L7.64.1a.71.71 0 0 1 .72 0l7.3 4.3a.7.7 0 0 1 0 1.2l-7.3 4.3a.7.7 0 0 1-.72 0zM8 1.51L2.08 5 8 8.49 13.92 5 8 1.51z" fill="currentColor" fill-rule="evenodd"/></svg>
